svgs/duotone/trophy-star.svg

<svg xmlns="http://www.w3.org/2000/svg" viewBox="0 0 576 512"><!--! Font Awesome Pro 6.3.0 by @fontawesome - https://fontawesome.com License - https://fontawesome.com/license (Commercial License) Copyright 2023 Fonticons, Inc. --><defs><style>.fa-secondary{opacity:.4}</style></defs><path class="fa-primary" d="M447.1 96L448 32c0-17.67-14.49-32-32.17-32H160.2C142.5 0 128 14.33 128 32l.0059 64c0 0 0 175.7 112.1 275c9.715 8.604 15.9 20.65 15.9 33.62C256 428.7 236.7 448 212.6 448H208c-26.51 0-47.99 21.49-47.99 48c0 8.836 7.162 16 15.1 16H399.1c8.836 0 15.1-7.164 15.1-16c0-26.51-21.48-48-47.99-48h-4.644c-24.03 0-43.36-19.33-43.36-43.35c0-12.98 6.184-25.02 15.9-33.62C447.1 271.7 447.1 96 447.1 96zM288.1 214.7L243.3 238.3c-4.689 2.465-10.17-1.516-9.271-6.742l8.578-49.98L206.3 146.3C202.5 142.6 204.6 136.2 209.8 135.4l50.26-7.344l22.43-45.43c2.346-4.75 9.119-4.75 11.46 0l22.43 45.43l50.08 7.316c5.244 .7656 7.33 7.219 3.529 10.91l-36.34 35.3l8.58 49.98c.8945 5.227-4.584 9.207-9.273 6.742L288.1 214.7z"/><path class="fa-secondary" d="M193.7 316.9C189.8 311.1 186.2 305.3 182.8 299.4c-47.14-19.35-82.56-45.83-105.4-79.52C49.47 178.6 47.01 135.7 48.38 112h80.39C128.1 101.9 128 96 128 96l.0836-32H27.26C16.16 64 6.537 71.59 3.912 82.38C3.1 85.78-15.71 167.2 37.07 245.9c37.45 55.82 100.6 95.03 187.5 117.4c8.828 2.268 17.76 9.74 15.51 7.75C211.9 346 194.2 317.4 193.7 316.9zM572.1 82.38C569.5 71.59 559.8 64 548.7 64h-100.8l.0812 32c0 0-.0955 5.926-.7654 16h80.39c1.375 23.66-1.093 66.63-29.03 107.8c-22.82 33.69-58.25 60.17-105.4 79.52c-3.402 5.91-7.023 11.73-10.86 17.5c-.5352 .5352-18.2 29.14-46.45 54.16c-2.248 1.99 6.686-5.482 15.51-7.75c86.96-22.34 150.1-61.55 187.5-117.4C591.7 167.2 572.9 85.78 572.1 82.38zM342.2 231.6l-8.58-49.98l36.34-35.3c3.801-3.691 1.715-10.14-3.529-10.91l-50.08-7.316l-22.43-45.43c-2.344-4.75-9.117-4.75-11.46 0l-22.43 45.43L209.8 135.4C204.6 136.2 202.5 142.6 206.3 146.3l36.31 35.27L234 231.6c-.8965 5.227 4.582 9.207 9.271 6.742l44.85-23.57l44.85 23.57C337.7 240.8 343.1 236.8 342.2 231.6z"/></svg>

<svg xmlns="http://www.w3.org/2000/svg" viewBox="0 0 576 512"><!-- Font Awesome Pro 6.0.0-alpha2 by @fontawesome - https://fontawesome.com License - https://fontawesome.com/license (Commercial License) --><defs><style>.fa-secondary{opacity:.4}</style></defs><path d="M193.654 316.859C189.816 311.09 186.195 305.273 182.793 299.363C135.656 280.016 100.231 253.529 77.412 219.844C49.475 178.625 47.006 135.656 48.381 112H128.701C128.031 101.926 128.012 96 128.012 96V64H27.256C16.162 64 6.537 71.594 3.912 82.375C3.1 85.781 -15.713 167.188 37.068 245.906C74.514 301.727 137.629 340.934 224.59 363.273C233.418 365.541 242.356 373.014 240.107 371.023C211.857 346.004 194.189 317.395 193.654 316.859ZM572.088 82.375C569.463 71.594 559.838 64 548.744 64H447.988V96C447.988 96 447.969 101.926 447.299 112H527.619C528.994 135.656 526.525 178.625 498.588 219.844C475.77 253.529 440.344 280.016 393.207 299.363C389.805 305.273 386.184 311.09 382.346 316.859C381.811 317.395 364.143 346.004 335.893 371.023C333.645 373.014 342.582 365.541 351.41 363.273C438.371 340.934 501.486 301.727 538.932 245.906C591.713 167.188 572.9 85.781 572.088 82.375ZM342.248 231.562L333.668 181.578L370.004 146.277C373.805 142.586 371.719 136.133 366.475 135.367L316.391 128.051L293.959 82.617C291.615 77.867 284.842 77.867 282.496 82.617L260.064 128.051L209.809 135.395C204.564 136.16 202.479 142.609 206.279 146.305L242.588 181.578L234.01 231.562C233.113 236.789 238.592 240.77 243.281 238.305L288.129 214.734L332.975 238.305C337.664 240.77 343.143 236.789 342.248 231.562Z" class="fa-secondary"/><path d="M448 96V32C448 14.326 433.674 0 416 0H160C142.326 0 128 14.326 128 32V96C128 96 128 271.746 240.096 371.023C249.811 379.627 256 391.514 256 404.49C256 428.52 236.52 448 212.49 448H208C181.49 448 160 469.49 160 496C160 504.836 167.164 512 176 512H400C408.836 512 416 504.836 416 496C416 469.49 394.51 448 368 448H363.51C339.48 448 320 428.52 320 404.49C320 391.514 326.189 379.627 335.904 371.023C448 271.746 448 96 448 96ZM288.129 214.734L243.281 238.305C238.592 240.77 233.113 236.789 234.01 231.562L242.588 181.578L206.279 146.305C202.479 142.609 204.564 136.16 209.809 135.395L260.064 128.051L282.496 82.617C284.842 77.867 291.615 77.867 293.959 82.617L316.391 128.051L366.475 135.367C371.719 136.133 373.805 142.586 370.004 146.277L333.668 181.578L342.248 231.562C343.143 236.789 337.664 240.77 332.975 238.305L288.129 214.734Z" class="fa-primary"/></svg>
